resources/svg/inbox-o.svg

<svg xmlns="http://www.w3.org/2000/svg" viewBox="0 0 15 15" fill="none"><path d="M7.71261 11.4926L7.67769 10.9938L7.71261 11.4926ZM1.5 1H13.5V0H1.5V1ZM14 1.5V13.5H15V1.5H14ZM13.5 14H1.5V15H13.5V14ZM1 13.5V1.5H0V13.5H1ZM1.5 14C1.22386 14 1 13.7761 1 13.5H0C0 14.3284 0.671573 15 1.5 15V14ZM14 13.5C14 13.7761 13.7761 14 13.5 14V15C14.3284 15 15 14.3284 15 13.5H14ZM13.5 1C13.7761 1 14 1.22386 14 1.5H15C15 0.671573 14.3284 0 13.5 0V1ZM1.5 0C0.671573 0 0 0.671574 0 1.5H1C1 1.22386 1.22386 1 1.5 1V0ZM7.5 12C7.58314 12 7.66569 11.9971 7.74753 11.9914L7.67769 10.9938C7.61907 10.9979 7.55982 11 7.5 11V12ZM6.67656 11.9025C6.94113 11.9663 7.21696 12 7.5 12V11C7.29657 11 7.09945 10.9758 6.91111 10.9304L6.67656 11.9025ZM6.91111 10.9304C5.94219 10.6966 5.01155 10.0349 3.94125 9.34386C2.92423 8.68718 1.77112 8 0.5 8V9C1.43802 9 2.35807 9.51196 3.39881 10.184C4.38625 10.8215 5.49796 11.6181 6.67656 11.9025L6.91111 10.9304ZM7.74753 11.9914C9.13355 11.8943 10.4475 11.0637 11.6128 10.359C12.8421 9.61562 13.9219 9 15 9V8C13.5928 8 12.2685 8.79387 11.0953 9.50334C9.85794 10.2516 8.77088 10.9173 7.67769 10.9938L7.74753 11.9914Z" fill="black"/></svg>

<svg xmlns="http://www.w3.org/2000/svg" viewBox="0 0 15 15" fill="none"><path d="M7.713 11.493l-.035-.5.035.5zM1.5 1h12V0h-12v1zm12.5.5v12h1v-12h-1zM13.5 14h-12v1h12v-1zM1 13.5v-12H0v12h1zm.5.5a.5.5 0 01-.5-.5H0A1.5 1.5 0 001.5 15v-1zm12.5-.5a.5.5 0 01-.5.5v1a1.5 1.5 0 001.5-1.5h-1zM13.5 1a.5.5 0 01.5.5h1A1.5 1.5 0 0013.5 0v1zm-12-1A1.5 1.5 0 000 1.5h1a.5.5 0 01.5-.5V0zm6 12c.083 0 .166-.003.248-.009l-.07-.997A2.546 2.546 0 017.5 11v1zm-.823-.098c.264.064.54.098.823.098v-1c-.203 0-.4-.024-.589-.07l-.234.973zm.234-.972c-.969-.233-1.9-.895-2.97-1.586C2.924 8.687 1.771 8 .5 8v1c.938 0 1.858.512 2.899 1.184.987.638 2.099 1.434 3.278 1.719l.234-.973zm.837 1.061c1.386-.097 2.7-.927 3.865-1.632C12.843 9.616 13.922 9 15 9V8c-1.407 0-2.732.794-3.905 1.503-1.237.749-2.324 1.414-3.417 1.49l.07.998z" fill="currentColor"/></svg>
